images/icons/percentage.svg

<svg xmlns="http://www.w3.org/2000/svg" baseProfile="full" width="855" height="570" fill="none"><path d="M240 480h360v-60H240v60m0-120h0v-60h360v60H240m0-120h0v-60h360v60H240m0-120h360V60H240v60" stroke-width="15" stroke-linecap="round" stroke-linejoin="round" stroke="#0a0a0a"/></svg>

<svg xmlns="http://www.w3.org/2000/svg" baseProfile="full" version="1.1" style="fill: none;" width="855px" height="570px"><path style="stroke-width: 15px; stroke-linecap: round; stroke-linejoin: round; stroke: rgb(106, 106, 106); fill: none;" d=""/><path style="stroke-width: 15px; stroke-linecap: round; stroke-linejoin: round; stroke: rgb(74, 74, 74); fill: none;" d=""/><path style="stroke-width: 15px; stroke-linecap: round; stroke-linejoin: round; stroke: rgb(10, 10, 10); fill: none;" d="M240,480 L240,480 L600,480 L600,420 L240,420 L240,480 M240,360 L240,360 L240,300 L600,300 L600,360 L240,360 M240,240 L240,240 L240,180 L600,180 L600,240 L240,240 M240,120 L240,120 L600,120 L600,60 L240,60 L240,120 "/></svg>
